!!!OTL: In einer glueckseligen Stund' schlug tief in mein Herz eine Wund'
!!!ARE: Europa, Mitteleuropa, Deutschland, Untermainfranken, Spessart
!!!SCT: D0169
!!!YEM: Copyright 1995, estate of Helmut Schaffrath.
**kern
*ICvox
*Ivox
*M6/8
*k[f#c#]
*D:
{8A
=1
8.f#
16e
8d
8d
8e
8f#
=2
4e
8r
4r}
{8a
=3
8.cc#
16b
8a
8g
8e
8a
=4
4f#
8r
4r}
{8d
=5
8d
8f#
8a
8dd
8.cc#
16b
=6
8b
8a
8r
4r}
{8a
=7
8.cc#
16b
8a
16g
16g
8e
8a
=8
4f#
8r
4r}
{8d
=9
8d
8f#
8a
8dd
8.cc#
16b
=10
8b
8a
8r
4r}
{8a
=11
8.cc#
16b
8a
16g
16g
8e
8a
=12
4f#
8r
4r}
==
!!!AGN: Liebes - Lied
!! Grundton ? ; Inzipit = Variante zum Lied
!!!ONB: ESAC (Essen Associative Code) Database: DVA
!!!AMT: compound duple
!!!AIN: vox
!!!EED: Helmut Schaffrath
!!!EEV: 1.0
*-
